; generated by PrusaSlicer 2.4.0+x64 on 2022-01-24 at 00:00:27 UTC

; 

; external perimeters extrusion width = 0.45mm
; perimeters extrusion width = 0.45mm
; infill extrusion width = 0.45mm
; solid infill extrusion width = 0.45mm
; top infill extrusion width = 0.40mm
; first layer extrusion width = 0.42mm

M201 X500 Y500 Z100 E5000 ; sets maximum accelerations, mm/sec^2
M203 X500 Y500 Z10 E60 ; sets maximum feedrates, mm/sec
M204 P500 R1000 T500 ; sets acceleration (P, T) and retract acceleration (R), mm/sec^2
M205 X8.00 Y8.00 Z0.40 E5.00 ; sets the jerk limits, mm/sec
M205 S0 T0 ; sets the minimum extruding and travel feed rate, mm/sec
M107
;TYPE:Custom
G90 ; use absolute coordinates
M83 ; extruder relative mode
M140 S60 ; set final bed temp
M104 S150 ; set temporary nozzle temp to prevent oozing during homing
G4 S10 ; allow partial nozzle warmup
G28 ; home all axis
G29; auto bed-leveling
G1 Z50 F240
G1 X2 Y10 F3000
M104 S210 ; set final nozzle temp
M190 S60 ; wait for bed temp to stabilize
M109 S210 ; wait for nozzle temp to stabilize
G1 Z0.28 F240
G92 E0
G1 Y140 E10 F1500 ; prime the nozzle
G1 X2.3 F5000
G92 E0
G1 Y10 E10 F1200 ; prime the nozzle
G92 E0
G21 ; set units to millimeters
G90 ; use absolute coordinates
M83 ; use relative distances for extrusion
; Filament gcode
M107
;LAYER_CHANGE
;Z:0.2
;HEIGHT:0.2
;BEFORE_LAYER_CHANGE
G92 E0
;0.2


G1 E-5 F3600
G1 Z.2 F9000
;AFTER_LAYER_CHANGE
;0.2
G1 X32.107 Y47.203
G1 E5 F2400
M204 S500
;TYPE:Skirt/Brim
;WIDTH:0.42
G1 F1200
G1 X34 Y46.623 E.06207
G1 X197 Y46.623 E5.11075
G1 X198.583 Y47.017 E.05115
G1 X199.797 Y48.107 E.05115
G1 X200.377 Y50 E.06207
G1 X200.377 Y181 E4.10741
G1 X199.983 Y182.583 E.05115
G1 X198.893 Y183.797 E.05115
G1 X197 Y184.377 E.06207
G1 X34 Y184.377 E5.11075
G1 X32.417 Y183.983 E.05115
G1 X31.203 Y182.893 E.05115
G1 X30.623 Y181 E.06207
G1 X30.623 Y50 E4.10741
G1 X31.017 Y48.417 E.05115
G1 X32.067 Y47.248 E.04927
G1 E-3.5 F3600
;WIPE_START
G1 F7200
G1 X34 Y46.623 E-.96489
G1 X34.969 Y46.623 E-.46011
;WIPE_END
G1 E-.075 F3600
G1 X34.69 Y158.69 F9000
G1 E5 F2400
;TYPE:External perimeter
G1 F1200
G1 X56.31 Y158.69 E.67788
G1 X56.31 Y180.31 E.67788
G1 X34.69 Y180.31 E.67788
G1 X34.69 Y158.75 E.676
G1 X34.586 Y158.304 F9000
G1 X34.31 Y158.31
G1 F1200
G1 X56.69 Y158.31 E.70171
G1 X56.69 Y180.69 E.70171
G1 X34.31 Y180.69 E.70171
G1 X34.31 Y158.37 E.69983
G1 X34.696 Y158.414 F9000
G1 E-3.5 F3600
;WIPE_START
G1 F7200
G1 X37.31 Y158.362 E-1.425
;WIPE_END
G1 E-.075 F3600
G1 X36.587 Y160.187 F9000
G1 E5 F2400
;TYPE:Perimeter
G1 F1200
G1 X54.813 Y160.187 E.57146
G1 X54.813 Y178.813 E.584
G1 X36.187 Y178.813 E.584
G1 X36.187 Y160.187 E.584
G1 X36.527 Y160.187 E.01066
G1 X35.81 Y159.81 F9000
;TYPE:External perimeter
G1 F1200
G1 X55.19 Y159.81 E.60765
G1 X55.19 Y179.19 E.60765
G1 X35.81 Y179.19 E.60765
G1 X35.81 Y159.87 E.60577
G1 X36.196 Y159.914 F9000
G1 E-3.5 F3600
;WIPE_START
G1 F7200
G1 X38.81 Y159.861 E-1.425
;WIPE_END
G1 E-.075 F3600
G1 X53.936 Y160.3 F9000
G1 E5 F2400
;TYPE:Solid infill
;WIDTH:0.420808
G1 F1200
G1 X54.53 Y160.894 E.02641
G1 X54.53 Y161.429 E.01679
G1 X53.571 Y160.47 E.04262
G1 X53.037 Y160.47 E.01679
G1 X54.53 Y161.963 E.06636
G1 X54.53 Y162.498 E.01679
G1 X52.502 Y160.47 E.09011
G1 X51.968 Y160.47 E.01679
G1 X54.53 Y163.032 E.11386
G1 X54.53 Y163.567 E.01679
G1 X51.433 Y160.47 E.13761
G1 X50.899 Y160.47 E.01679
G1 X54.53 Y164.101 E.16135
G1 X54.53 Y164.635 E.01679
G1 X50.365 Y160.47 E.1851
G1 X49.83 Y160.47 E.01679
G1 X54.53 Y165.17 E.20885
G1 X54.53 Y165.704 E.01679
G1 X49.296 Y160.47 E.2326
G1 X48.761 Y160.47 E.01679
G1 X54.53 Y166.239 E.25634
G1 X54.53 Y166.773 E.01679
G1 X48.227 Y160.47 E.28009
G1 X47.693 Y160.47 E.01679
G1 X54.53 Y167.307 E.30384
G1 X54.53 Y167.842 E.01679
G1 X47.158 Y160.47 E.32759
G1 X46.624 Y160.47 E.01679
G1 X54.53 Y168.376 E.35134
G1 X54.53 Y168.911 E.01679
G1 X46.089 Y160.47 E.37508
G1 X45.555 Y160.47 E.01679
G1 X54.53 Y169.445 E.39883
G1 X54.53 Y169.98 E.01679
G1 X45.02 Y160.47 E.42258
G1 X44.486 Y160.47 E.01679
G1 X54.53 Y170.514 E.44633
G1 X54.53 Y171.048 E.01679
G1 X43.952 Y160.47 E.47007
G1 X43.417 Y160.47 E.01679
G1 X54.53 Y171.583 E.49382
G1 X54.53 Y172.117 E.01679
G1 X42.883 Y160.47 E.51757
G1 X42.348 Y160.47 E.01679
G1 X54.53 Y172.652 E.54132
G1 X54.53 Y173.186 E.01679
G1 X41.814 Y160.47 E.56506
G1 X41.28 Y160.47 E.01679
G1 X54.53 Y173.72 E.58881
G1 X54.53 Y174.255 E.01679
G1 X40.745 Y160.47 E.61256
G1 X40.211 Y160.47 E.01679
G1 X54.53 Y174.789 E.63631
G1 X54.53 Y175.324 E.01679
G1 X39.676 Y160.47 E.66005
G1 X39.142 Y160.47 E.01679
G1 X54.53 Y175.858 E.6838
G1 X54.53 Y176.392 E.01679
G1 X38.608 Y160.47 E.70755
G1 X38.073 Y160.47 E.01679
G1 X54.53 Y176.927 E.7313
G1 X54.53 Y177.461 E.01679
G1 X37.539 Y160.47 E.75504
G1 X37.004 Y160.47 E.01679
G1 X54.53 Y177.996 E.77879
G1 X54.53 Y178.53 E.01679
G1 X36.47 Y160.47 E.80254
G1 X36.47 Y161.004 E.01679
G1 X53.996 Y178.53 E.77879
G1 X53.461 Y178.53 E.01679
G1 X36.47 Y161.539 E.75504
G1 X36.47 Y162.073 E.01679
G1 X52.927 Y178.53 E.7313
G1 X52.392 Y178.53 E.01679
G1 X36.47 Y162.608 E.70755
G1 X36.47 Y163.142 E.01679
G1 X51.858 Y178.53 E.6838
G1 X51.324 Y178.53 E.01679
G1 X36.47 Y163.676 E.66005
G1 X36.47 Y164.211 E.01679
G1 X50.789 Y178.53 E.6363
G1 X50.255 Y178.53 E.01679
G1 X36.47 Y164.745 E.61256
G1 X36.47 Y165.28 E.01679
G1 X49.72 Y178.53 E.58881
G1 X49.186 Y178.53 E.01679
G1 X36.47 Y165.814 E.56506
G1 X36.47 Y166.348 E.01679
G1 X48.652 Y178.53 E.54131
G1 X48.117 Y178.53 E.01679
G1 X36.47 Y166.883 E.51757
G1 X36.47 Y167.417 E.01679
G1 X47.583 Y178.53 E.49382
G1 X47.048 Y178.53 E.01679
G1 X36.47 Y167.952 E.47007
G1 X36.47 Y168.486 E.01679
G1 X46.514 Y178.53 E.44632
G1 X45.979 Y178.53 E.01679
G1 X36.47 Y169.021 E.42258
G1 X36.47 Y169.555 E.01679
G1 X45.445 Y178.53 E.39883
G1 X44.911 Y178.53 E.01679
G1 X36.47 Y170.089 E.37508
G1 X36.47 Y170.624 E.01679
G1 X44.376 Y178.53 E.35133
G1 X43.842 Y178.53 E.01679
G1 X36.47 Y171.158 E.32759
G1 X36.47 Y171.693 E.01679
G1 X43.307 Y178.53 E.30384
G1 X42.773 Y178.53 E.01679
G1 X36.47 Y172.227 E.28009
G1 X36.47 Y172.761 E.01679
G1 X42.239 Y178.53 E.25634
G1 X41.704 Y178.53 E.01679
G1 X36.47 Y173.296 E.2326
G1 X36.47 Y173.83 E.01679
G1 X41.17 Y178.53 E.20885
G1 X40.635 Y178.53 E.01679
G1 X36.47 Y174.365 E.1851
G1 X36.47 Y174.899 E.01679
G1 X40.101 Y178.53 E.16135
G1 X39.567 Y178.53 E.01679
G1 X36.47 Y175.433 E.1376
G1 X36.47 Y175.968 E.01679
G1 X39.032 Y178.53 E.11386
G1 X38.498 Y178.53 E.01679
G1 X36.47 Y176.502 E.09011
G1 X36.47 Y177.037 E.01679
G1 X37.963 Y178.53 E.06636
G1 X37.429 Y178.53 E.01679
G1 X36.47 Y177.571 E.04261
G1 X36.47 Y178.106 E.01679
G1 X37.064 Y178.7 E.02641
G1 E-3.5 F3600
;WIPE_START
G1 F7200
G1 X36.47 Y178.106 E-.39919
G1 X36.47 Y177.571 E-.25385
G1 X37.429 Y178.53 E-.6442
G1 X37.698 Y178.53 E-.12776
;WIPE_END
G1 E-.075 F3600
G1 X104.69 Y180.31 F9000
G1 E5 F2400
;TYPE:External perimeter
;WIDTH:0.42
G1 F1200
G1 X104.69 Y158.69 E.67788
G1 X126.31 Y158.69 E.67788
G1 X126.31 Y180.31 E.67788
G1 X104.75 Y180.31 E.676
G1 X104.304 Y180.414 F9000
G1 X104.31 Y180.69
G1 F1200
G1 X104.31 Y158.31 E.70171
G1 X126.69 Y158.31 E.70171
G1 X126.69 Y180.69 E.70171
G1 X104.37 Y180.69 E.69983
G1 X104.414 Y180.304 F9000
G1 E-3.5 F3600
;WIPE_START
G1 F7200
G1 X104.362 Y177.69 E-1.425
;WIPE_END
G1 E-.075 F3600
G1 X106.187 Y178.413 F9000
G1 E5 F2400
;TYPE:Perimeter
G1 F1200
G1 X106.187 Y160.187 E.57146
G1 X124.813 Y160.187 E.584
G1 X124.813 Y178.813 E.584
G1 X106.187 Y178.813 E.584
G1 X106.187 Y178.473 E.01066
G1 X105.81 Y179.19 F9000
;TYPE:External perimeter
G1 F1200
G1 X105.81 Y159.81 E.60765
G1 X125.19 Y159.81 E.60765
G1 X125.19 Y179.19 E.60765
G1 X105.87 Y179.19 E.60577
G1 X105.914 Y178.804 F9000
G1 E-3.5 F3600
;WIPE_START
G1 F7200
G1 X105.861 Y176.19 E-1.425
;WIPE_END
G1 E-.075 F3600
G1 X123.936 Y160.3 F9000
G1 E5 F2400
;TYPE:Solid infill
;WIDTH:0.420809
G1 F1200
G1 X124.53 Y160.894 E.02641
G1 X124.53 Y161.429 E.01679
G1 X123.571 Y160.47 E.04262
G1 X123.037 Y160.47 E.01679
G1 X124.53 Y161.963 E.06636
G1 X124.53 Y162.498 E.01679
G1 X122.502 Y160.47 E.09011
G1 X121.968 Y160.47 E.01679
G1 X124.53 Y163.032 E.11386
G1 X124.53 Y163.567 E.01679
G1 X121.433 Y160.47 E.13761
G1 X120.899 Y160.47 E.01679
G1 X124.53 Y164.101 E.16136
G1 X124.53 Y164.635 E.01679
G1 X120.365 Y160.47 E.1851
G1 X119.83 Y160.47 E.01679
G1 X124.53 Y165.17 E.20885
G1 X124.53 Y165.704 E.01679
G1 X119.296 Y160.47 E.2326
G1 X118.761 Y160.47 E.01679
G1 X124.53 Y166.239 E.25635
G1 X124.53 Y166.773 E.01679
G1 X118.227 Y160.47 E.28009
G1 X117.693 Y160.47 E.01679
G1 X124.53 Y167.307 E.30384
G1 X124.53 Y167.842 E.01679
G1 X117.158 Y160.47 E.32759
G1 X116.624 Y160.47 E.01679
G1 X124.53 Y168.376 E.35134
G1 X124.53 Y168.911 E.01679
G1 X116.089 Y160.47 E.37508
G1 X115.555 Y160.47 E.01679
G1 X124.53 Y169.445 E.39883
G1 X124.53 Y169.98 E.01679
G1 X115.02 Y160.47 E.42258
G1 X114.486 Y160.47 E.01679
G1 X124.53 Y170.514 E.44633
G1 X124.53 Y171.048 E.01679
G1 X113.952 Y160.47 E.47008
G1 X113.417 Y160.47 E.01679
G1 X124.53 Y171.583 E.49382
G1 X124.53 Y172.117 E.01679
G1 X112.883 Y160.47 E.51757
G1 X112.348 Y160.47 E.01679
G1 X124.53 Y172.652 E.54132
G1 X124.53 Y173.186 E.01679
G1 X111.814 Y160.47 E.56507
G1 X111.28 Y160.47 E.01679
G1 X124.53 Y173.72 E.58881
G1 X124.53 Y174.255 E.01679
G1 X110.745 Y160.47 E.61256
G1 X110.211 Y160.47 E.01679
G1 X124.53 Y174.789 E.63631
G1 X124.53 Y175.324 E.01679
G1 X109.676 Y160.47 E.66006
G1 X109.142 Y160.47 E.01679
G1 X124.53 Y175.858 E.68381
G1 X124.53 Y176.393 E.01679
G1 X108.607 Y160.47 E.70755
G1 X108.073 Y160.47 E.01679
G1 X124.53 Y176.927 E.7313
G1 X124.53 Y177.461 E.01679
G1 X107.539 Y160.47 E.75505
G1 X107.004 Y160.47 E.01679
G1 X124.53 Y177.996 E.7788
G1 X124.53 Y178.53 E.01679
G1 X106.47 Y160.47 E.80254
G1 X106.47 Y161.004 E.01679
G1 X123.996 Y178.53 E.77879
G1 X123.461 Y178.53 E.01679
G1 X106.47 Y161.539 E.75504
G1 X106.47 Y162.073 E.01679
G1 X122.927 Y178.53 E.7313
G1 X122.392 Y178.53 E.01679
G1 X106.47 Y162.608 E.70755
G1 X106.47 Y163.142 E.01679
G1 X121.858 Y178.53 E.6838
G1 X121.324 Y178.53 E.01679
G1 X106.47 Y163.676 E.66005
G1 X106.47 Y164.211 E.01679
G1 X120.789 Y178.53 E.6363
G1 X120.255 Y178.53 E.01679
G1 X106.47 Y164.745 E.61256
G1 X106.47 Y165.28 E.01679
G1 X119.72 Y178.53 E.58881
G1 X119.186 Y178.53 E.01679
G1 X106.47 Y165.814 E.56506
G1 X106.47 Y166.349 E.01679
G1 X118.651 Y178.53 E.54131
G1 X118.117 Y178.53 E.01679
G1 X106.47 Y166.883 E.51757
G1 X106.47 Y167.417 E.01679
G1 X117.583 Y178.53 E.49382
G1 X117.048 Y178.53 E.01679
G1 X106.47 Y167.952 E.47007
G1 X106.47 Y168.486 E.01679
G1 X116.514 Y178.53 E.44632
G1 X115.979 Y178.53 E.01679
G1 X106.47 Y169.021 E.42257
G1 X106.47 Y169.555 E.01679
G1 X115.445 Y178.53 E.39883
G1 X114.911 Y178.53 E.01679
G1 X106.47 Y170.089 E.37508
G1 X106.47 Y170.624 E.01679
G1 X114.376 Y178.53 E.35133
G1 X113.842 Y178.53 E.01679
G1 X106.47 Y171.158 E.32758
G1 X106.47 Y171.693 E.01679
G1 X113.307 Y178.53 E.30384
G1 X112.773 Y178.53 E.01679
G1 X106.47 Y172.227 E.28009
G1 X106.47 Y172.761 E.01679
G1 X112.239 Y178.53 E.25634
G1 X111.704 Y178.53 E.01679
G1 X106.47 Y173.296 E.23259
G1 X106.47 Y173.83 E.01679
G1 X111.17 Y178.53 E.20884
G1 X110.635 Y178.53 E.01679
G1 X106.47 Y174.365 E.1851
G1 X106.47 Y174.899 E.01679
G1 X110.101 Y178.53 E.16135
G1 X109.566 Y178.53 E.01679
G1 X106.47 Y175.434 E.1376
G1 X106.47 Y175.968 E.01679
G1 X109.032 Y178.53 E.11385
G1 X108.498 Y178.53 E.01679
G1 X106.47 Y176.502 E.09011
G1 X106.47 Y177.037 E.01679
G1 X107.963 Y178.53 E.06636
G1 X107.429 Y178.53 E.01679
G1 X106.47 Y177.571 E.04261
G1 X106.47 Y178.106 E.01679
G1 X107.064 Y178.7 E.0264
G1 E-3.5 F3600
;WIPE_START
G1 F7200
G1 X106.47 Y178.106 E-.39913
G1 X106.47 Y177.571 E-.25385
G1 X107.429 Y178.53 E-.64414
G1 X107.698 Y178.53 E-.12788
;WIPE_END
G1 E-.075 F3600
G1 X174.69 Y180.31 F9000
G1 E5 F2400
;TYPE:External perimeter
;WIDTH:0.42
G1 F1200
G1 X174.69 Y158.69 E.67788
G1 X196.31 Y158.69 E.67788
G1 X196.31 Y180.31 E.67788
G1 X174.75 Y180.31 E.676
G1 X174.304 Y180.414 F9000
G1 X174.31 Y180.69
G1 F1200
G1 X174.31 Y158.31 E.70171
G1 X196.69 Y158.31 E.70171
G1 X196.69 Y180.69 E.70171
G1 X174.37 Y180.69 E.69983
G1 X174.414 Y180.304 F9000
G1 E-3.5 F3600
;WIPE_START
G1 F7200
G1 X174.362 Y177.69 E-1.425
;WIPE_END
G1 E-.075 F3600
G1 X176.187 Y178.413 F9000
G1 E5 F2400
;TYPE:Perimeter
G1 F1200
G1 X176.187 Y160.187 E.57146
G1 X194.813 Y160.187 E.584
G1 X194.813 Y178.813 E.584
G1 X176.187 Y178.813 E.584
G1 X176.187 Y178.473 E.01066
G1 X175.81 Y179.19 F9000
;TYPE:External perimeter
G1 F1200
G1 X175.81 Y159.81 E.60765
G1 X195.19 Y159.81 E.60765
G1 X195.19 Y179.19 E.60765
G1 X175.87 Y179.19 E.60577
G1 X175.914 Y178.804 F9000
G1 E-3.5 F3600
;WIPE_START
G1 F7200
G1 X175.861 Y176.19 E-1.425
;WIPE_END
G1 E-.075 F3600
G1 X193.936 Y160.3 F9000
G1 E5 F2400
;TYPE:Solid infill
;WIDTH:0.420808
G1 F1200
G1 X194.53 Y160.894 E.02641
G1 X194.53 Y161.429 E.01679
G1 X193.571 Y160.47 E.04262
G1 X193.037 Y160.47 E.01679
G1 X194.53 Y161.963 E.06636
G1 X194.53 Y162.498 E.01679
G1 X192.502 Y160.47 E.09011
G1 X191.968 Y160.47 E.01679
G1 X194.53 Y163.032 E.11386
G1 X194.53 Y163.567 E.01679
G1 X191.433 Y160.47 E.13761
G1 X190.899 Y160.47 E.01679
G1 X194.53 Y164.101 E.16135
G1 X194.53 Y164.635 E.01679
G1 X190.365 Y160.47 E.1851
G1 X189.83 Y160.47 E.01679
G1 X194.53 Y165.17 E.20885
G1 X194.53 Y165.704 E.01679
G1 X189.296 Y160.47 E.2326
G1 X188.761 Y160.47 E.01679
G1 X194.53 Y166.239 E.25634
G1 X194.53 Y166.773 E.01679
G1 X188.227 Y160.47 E.28009
G1 X187.693 Y160.47 E.01679
G1 X194.53 Y167.307 E.30384
G1 X194.53 Y167.842 E.01679
G1 X187.158 Y160.47 E.32759
G1 X186.624 Y160.47 E.01679
G1 X194.53 Y168.376 E.35134
G1 X194.53 Y168.911 E.01679
G1 X186.089 Y160.47 E.37508
G1 X185.555 Y160.47 E.01679
G1 X194.53 Y169.445 E.39883
G1 X194.53 Y169.98 E.01679
G1 X185.02 Y160.47 E.42258
G1 X184.486 Y160.47 E.01679
G1 X194.53 Y170.514 E.44633
G1 X194.53 Y171.048 E.01679
G1 X183.952 Y160.47 E.47007
G1 X183.417 Y160.47 E.01679
G1 X194.53 Y171.583 E.49382
G1 X194.53 Y172.117 E.01679
G1 X182.883 Y160.47 E.51757
G1 X182.348 Y160.47 E.01679
G1 X194.53 Y172.652 E.54132
G1 X194.53 Y173.186 E.01679
G1 X181.814 Y160.47 E.56506
G1 X181.28 Y160.47 E.01679
G1 X194.53 Y173.72 E.58881
G1 X194.53 Y174.255 E.01679
G1 X180.745 Y160.47 E.61256
G1 X180.211 Y160.47 E.01679
G1 X194.53 Y174.789 E.63631
G1 X194.53 Y175.324 E.01679
G1 X179.676 Y160.47 E.66005
G1 X179.142 Y160.47 E.01679
G1 X194.53 Y175.858 E.6838
G1 X194.53 Y176.392 E.01679
G1 X178.608 Y160.47 E.70755
G1 X178.073 Y160.47 E.01679
G1 X194.53 Y176.927 E.7313
G1 X194.53 Y177.461 E.01679
G1 X177.539 Y160.47 E.75504
G1 X177.004 Y160.47 E.01679
G1 X194.53 Y177.996 E.77879
G1 X194.53 Y178.53 E.01679
G1 X176.47 Y160.47 E.80254
G1 X176.47 Y161.004 E.01679
G1 X193.996 Y178.53 E.77879
G1 X193.461 Y178.53 E.01679
G1 X176.47 Y161.539 E.75504
G1 X176.47 Y162.073 E.01679
G1 X192.927 Y178.53 E.7313
G1 X192.392 Y178.53 E.01679
G1 X176.47 Y162.608 E.70755
G1 X176.47 Y163.142 E.01679
G1 X191.858 Y178.53 E.6838
G1 X191.324 Y178.53 E.01679
G1 X176.47 Y163.676 E.66005
G1 X176.47 Y164.211 E.01679
G1 X190.789 Y178.53 E.6363
G1 X190.255 Y178.53 E.01679
G1 X176.47 Y164.745 E.61256
G1 X176.47 Y165.28 E.01679
G1 X189.72 Y178.53 E.58881
G1 X189.186 Y178.53 E.01679
G1 X176.47 Y165.814 E.56506
G1 X176.47 Y166.348 E.01679
G1 X188.652 Y178.53 E.54131
G1 X188.117 Y178.53 E.01679
G1 X176.47 Y166.883 E.51757
G1 X176.47 Y167.417 E.01679
G1 X187.583 Y178.53 E.49382
G1 X187.048 Y178.53 E.01679
G1 X176.47 Y167.952 E.47007
G1 X176.47 Y168.486 E.01679
G1 X186.514 Y178.53 E.44632
G1 X185.979 Y178.53 E.01679
G1 X176.47 Y169.021 E.42258
G1 X176.47 Y169.555 E.01679
G1 X185.445 Y178.53 E.39883
G1 X184.911 Y178.53 E.01679
G1 X176.47 Y170.089 E.37508
G1 X176.47 Y170.624 E.01679
G1 X184.376 Y178.53 E.35133
G1 X183.842 Y178.53 E.01679
G1 X176.47 Y171.158 E.32759
G1 X176.47 Y171.693 E.01679
G1 X183.307 Y178.53 E.30384
G1 X182.773 Y178.53 E.01679
G1 X176.47 Y172.227 E.28009
G1 X176.47 Y172.761 E.01679
G1 X182.239 Y178.53 E.25634
G1 X181.704 Y178.53 E.01679
G1 X176.47 Y173.296 E.2326
G1 X176.47 Y173.83 E.01679
G1 X181.17 Y178.53 E.20885
